; generated by PrusaSlicer 2.2.0 on 2020-12-19 at 11:54:25 UTC

; 

; external perimeters extrusion width = 0.45mm
; perimeters extrusion width = 0.45mm
; infill extrusion width = 0.45mm
; solid infill extrusion width = 0.45mm
; top infill extrusion width = 0.40mm
; first layer extrusion width = 0.42mm

; external perimeters extrusion width = 0.45mm
; perimeters extrusion width = 0.45mm
; infill extrusion width = 0.45mm
; solid infill extrusion width = 0.45mm
; top infill extrusion width = 0.40mm
; first layer extrusion width = 0.42mm

M201 X9000 Y9000 Z500 E10000 ; sets maximum accelerations, mm/sec^2
M203 X500 Y500 Z12 E120 ; sets maximum feedrates, mm/sec
M204 P1500 R1500 T1500 ; sets acceleration (P, T) and retract acceleration (R), mm/sec^2
M205 X10.00 Y10.00 Z0.20 E2.50 ; sets the jerk limits, mm/sec
M205 S0 T0 ; sets the minimum extruding and travel feed rate, mm/sec
M107
M190 S45 ; set bed temperature and wait for it to be reached
M104 S200 ; set temperature
G28 ; home all axes
G1 Z5 F5000 ; lift nozzle
M109 S200 ; set temperature and wait for it to be reached
G21 ; set units to millimeters
G90 ; use absolute coordinates
M82 ; use absolute distances for extrusion
G92 E0
; Filament gcode
G1 Z0.350 F7800.000
G1 E-2.00000 F2400.00000
G92 E0
G1 X58.184 Y63.517 F7800.000
G1 E2.00000 F2400.00000
G1 F1800.000
G1 X59.379 Y62.551 E2.07712
G1 X60.743 Y61.817 E2.15488
G1 X62.238 Y61.344 E2.23355
G1 X63.708 Y61.160 E2.30792
G1 X136.006 Y61.155 E5.93625
G1 X137.585 Y61.307 E6.01585
G1 X139.072 Y61.742 E6.09360
G1 X140.396 Y62.407 E6.16798
G1 X141.645 Y63.354 E6.24664
G1 X142.699 Y64.524 E6.32564
G1 X143.509 Y65.859 E6.40401
G1 X144.062 Y67.346 E6.48361
G1 X144.317 Y68.818 E6.55862
G1 X144.338 Y130.835 E9.67098
G1 X144.114 Y132.449 E9.75275
G1 X143.603 Y133.938 E9.83174
G1 X142.858 Y135.254 E9.90767
G1 X141.823 Y136.477 E9.98808
G1 X140.626 Y137.445 E10.06533
G1 X139.257 Y138.183 E10.14340
G1 X137.762 Y138.656 E10.22206
G1 X136.291 Y138.840 E10.29645
G1 X63.988 Y138.845 E13.92508
G1 X62.362 Y138.682 E14.00706
G1 X60.769 Y138.193 E14.09071
G1 X59.322 Y137.410 E14.17329
G1 X58.023 Y136.323 E14.25830
G1 X57.060 Y135.133 E14.33512
G1 X56.322 Y133.768 E14.41298
G1 X55.849 Y132.285 E14.49111
G1 X55.661 Y130.823 E14.56510
G1 X55.655 Y69.488 E17.64325
G1 X55.820 Y67.848 E17.72596
G1 X56.309 Y66.261 E17.80930
G1 X57.096 Y64.812 E17.89203
G1 X58.145 Y63.563 E17.97391
G1 E15.97391 F2400.00000
G92 E0
G1 X120.755 Y124.428 F7800.000
G1 E2.00000 F2400.00000
G1 F1800.000
G1 X79.245 Y124.428 E4.08320
G1 X79.245 Y75.572 E6.53512
G1 X120.755 Y75.572 E8.61833
G1 X120.755 Y124.368 E11.06723
G1 X120.410 Y124.083 F7800.000
G1 F1800.000
G1 X79.590 Y124.083 E13.11582
G1 X79.590 Y75.917 E15.53312
G1 X120.410 Y75.917 E17.58170
G1 X120.410 Y124.023 E19.99599
G1 X120.503 Y124.473 F7800.000
G1 E17.99599 F2400.00000
G92 E0
G1 X76.570 Y72.488 F7800.000
G1 E2.00000 F2400.00000
G1 F1800.000
G1 X76.254 Y72.671 E2.01832
G1 X75.908 Y72.787 E2.03663
G1 X75.546 Y72.832 E2.05495
G1 X75.182 Y72.805 E2.07326
G1 X74.830 Y72.706 E2.09158
G1 X74.506 Y72.540 E2.10989
G1 X74.220 Y72.312 E2.12821
G1 X73.986 Y72.032 E2.14653
G1 X73.815 Y71.718 E2.16449
G1 X73.723 Y71.445 E2.17893
G1 X73.670 Y71.091 E2.19689
G1 X73.688 Y70.727 E2.21521
G1 X73.778 Y70.373 E2.23352
G1 X73.936 Y70.044 E2.25184
G1 X74.157 Y69.753 E2.27016
G1 X74.430 Y69.512 E2.28847
G1 X74.746 Y69.329 E2.30679
G1 X75.092 Y69.213 E2.32510
G1 X75.454 Y69.168 E2.34342
G1 X75.818 Y69.195 E2.36173
G1 X76.170 Y69.294 E2.38005
G1 X76.488 Y69.457 E2.39803
G1 X76.719 Y69.632 E2.41256
G1 X76.961 Y69.894 E2.43042
G1 X77.151 Y70.205 E2.44873
G1 X77.276 Y70.548 E2.46705
G1 X77.330 Y70.909 E2.48536
G1 X77.312 Y71.273 E2.50368
G1 X77.222 Y71.627 E2.52199
G1 X77.064 Y71.956 E2.54031
G1 X76.843 Y72.247 E2.55863
G1 X76.615 Y72.448 E2.57393
G1 X76.367 Y72.207 F7800.000
G1 F1800.000
G1 X76.111 Y72.355 E2.58878
G1 X75.831 Y72.449 E2.60363
G1 X75.537 Y72.486 E2.61849
G1 X75.242 Y72.464 E2.63334
G1 X74.957 Y72.383 E2.64819
G1 X74.694 Y72.248 E2.66304
G1 X74.462 Y72.064 E2.67789
G1 X74.272 Y71.837 E2.69274
G1 X74.132 Y71.580 E2.70746
G1 X74.059 Y71.364 E2.71887
G1 X74.016 Y71.074 E2.73359
G1 X74.031 Y70.779 E2.74844
G1 X74.104 Y70.492 E2.76329
G1 X74.232 Y70.225 E2.77815
G1 X74.411 Y69.989 E2.79300
G1 X74.633 Y69.793 E2.80785
G1 X74.889 Y69.645 E2.82270
G1 X75.169 Y69.551 E2.83755
G1 X75.463 Y69.514 E2.85240
G1 X75.758 Y69.536 E2.86726
G1 X76.043 Y69.617 E2.88211
G1 X76.304 Y69.750 E2.89683
G1 X76.486 Y69.889 E2.90833
G1 X76.685 Y70.103 E2.92296
G1 X76.839 Y70.355 E2.93781
G1 X76.940 Y70.633 E2.95266
G1 X76.984 Y70.926 E2.96751
G1 X76.969 Y71.221 E2.98236
G1 X76.896 Y71.508 E2.99721
G1 X76.768 Y71.775 E3.01206
G1 X76.589 Y72.011 E3.02692
G1 X76.412 Y72.167 E3.03876
G1 X76.397 Y72.501 F7800.000
G1 E1.03876 F2400.00000
G92 E0
G1 X122.668 Y71.007 F7800.000
G1 E2.00000 F2400.00000
G1 F1800.000
G1 X122.689 Y70.720 E2.01444
G1 X122.778 Y70.373 E2.03240
G1 X122.936 Y70.044 E2.05072
G1 X123.157 Y69.753 E2.06903
G1 X123.430 Y69.512 E2.08735
G1 X123.746 Y69.329 E2.10566
G1 X124.092 Y69.213 E2.12398
G1 X124.454 Y69.168 E2.14230
G1 X124.818 Y69.195 E2.16061
G1 X125.170 Y69.294 E2.17893
G1 X125.494 Y69.460 E2.19724
G1 X125.780 Y69.688 E2.21556
G1 X126.014 Y69.968 E2.23387
G1 X126.189 Y70.288 E2.25219
G1 X126.296 Y70.637 E2.27051
G1 X126.332 Y70.993 E2.28847
G1 X126.311 Y71.280 E2.30290
G1 X126.222 Y71.627 E2.32087
G1 X126.064 Y71.956 E2.33919
G1 X125.843 Y72.247 E2.35750
G1 X125.570 Y72.488 E2.37582
G1 X125.254 Y72.671 E2.39414
G1 X124.908 Y72.787 E2.41245
G1 X124.546 Y72.832 E2.43077
G1 X124.182 Y72.805 E2.44908
G1 X123.830 Y72.706 E2.46740
G1 X123.506 Y72.540 E2.48571
G1 X123.220 Y72.312 E2.50403
G1 X122.986 Y72.032 E2.52235
G1 X122.811 Y71.712 E2.54066
G1 X122.704 Y71.363 E2.55898
G1 X122.674 Y71.067 E2.57393
G1 X123.014 Y71.003 F7800.000
G1 F1800.000
G1 X123.031 Y70.776 E2.58534
G1 X123.104 Y70.492 E2.60006
G1 X123.232 Y70.225 E2.61491
G1 X123.411 Y69.989 E2.62976
G1 X123.633 Y69.793 E2.64461
G1 X123.889 Y69.645 E2.65946
G1 X124.169 Y69.551 E2.67432
G1 X124.463 Y69.514 E2.68917
G1 X124.758 Y69.536 E2.70402
G1 X125.043 Y69.617 E2.71887
G1 X125.306 Y69.752 E2.73372
G1 X125.538 Y69.936 E2.74857
G1 X125.728 Y70.163 E2.76343
G1 X125.869 Y70.423 E2.77828
G1 X125.957 Y70.706 E2.79313
G1 X125.986 Y70.997 E2.80785
G1 X125.969 Y71.224 E2.81925
G1 X125.896 Y71.508 E2.83398
G1 X125.768 Y71.775 E2.84883
G1 X125.589 Y72.011 E2.86368
G1 X125.367 Y72.207 E2.87853
G1 X125.111 Y72.355 E2.89338
G1 X124.831 Y72.449 E2.90824
G1 X124.537 Y72.486 E2.92309
G1 X124.242 Y72.464 E2.93794
G1 X123.957 Y72.383 E2.95279
G1 X123.694 Y72.248 E2.96764
G1 X123.462 Y72.064 E2.98249
G1 X123.272 Y71.837 E2.99735
G1 X123.131 Y71.577 E3.01220
G1 X123.043 Y71.294 E3.02705
G1 X123.020 Y71.062 E3.03876
G1 X122.815 Y70.892 F7800.000
G1 E1.03876 F2400.00000
G92 E0
G1 X124.454 Y127.168 F7800.000
G1 E2.00000 F2400.00000
G1 F1800.000
G1 X124.818 Y127.195 E2.01832
G1 X125.170 Y127.294 E2.03663
G1 X125.494 Y127.460 E2.05495
G1 X125.780 Y127.688 E2.07326
G1 X126.014 Y127.968 E2.09158
G1 X126.189 Y128.288 E2.10989
G1 X126.296 Y128.637 E2.12821
G1 X126.332 Y128.993 E2.14617
G1 X126.311 Y129.280 E2.16060
G1 X126.222 Y129.627 E2.17858
G1 X126.064 Y129.956 E2.19689
G1 X125.843 Y130.247 E2.21521
G1 X125.570 Y130.488 E2.23352
G1 X125.254 Y130.671 E2.25184
G1 X124.908 Y130.787 E2.27016
G1 X124.546 Y130.832 E2.28847
G1 X124.182 Y130.805 E2.30679
G1 X123.830 Y130.706 E2.32510
G1 X123.506 Y130.540 E2.34342
G1 X123.220 Y130.312 E2.36173
G1 X122.986 Y130.032 E2.38005
G1 X122.811 Y129.712 E2.39837
G1 X122.704 Y129.363 E2.41668
G1 X122.668 Y129.007 E2.43465
G1 X122.689 Y128.720 E2.44907
G1 X122.778 Y128.373 E2.46705
G1 X122.936 Y128.044 E2.48536
G1 X123.157 Y127.753 E2.50368
G1 X123.430 Y127.512 E2.52200
G1 X123.746 Y127.329 E2.54031
G1 X124.092 Y127.213 E2.55863
G1 X124.395 Y127.175 E2.57393
G1 X124.463 Y127.514 F7800.000
G1 F1800.000
G1 X124.758 Y127.536 E2.58878
G1 X125.043 Y127.617 E2.60363
G1 X125.306 Y127.752 E2.61849
G1 X125.538 Y127.936 E2.63334
G1 X125.728 Y128.163 E2.64819
G1 X125.869 Y128.423 E2.66304
G1 X125.957 Y128.706 E2.67789
G1 X125.986 Y128.997 E2.69261
G1 X125.969 Y129.224 E2.70401
G1 X125.896 Y129.508 E2.71874
G1 X125.768 Y129.775 E2.73359
G1 X125.589 Y130.011 E2.74844
G1 X125.367 Y130.207 E2.76329
G1 X125.111 Y130.355 E2.77815
G1 X124.831 Y130.449 E2.79300
G1 X124.537 Y130.486 E2.80785
G1 X124.242 Y130.464 E2.82270
G1 X123.957 Y130.383 E2.83755
G1 X123.694 Y130.248 E2.85240
G1 X123.462 Y130.064 E2.86726
G1 X123.272 Y129.837 E2.88211
G1 X123.131 Y129.577 E2.89696
G1 X123.043 Y129.294 E2.91181
G1 X123.014 Y129.003 E2.92653
G1 X123.031 Y128.776 E2.93793
G1 X123.104 Y128.492 E2.95266
G1 X123.232 Y128.225 E2.96751
G1 X123.411 Y127.989 E2.98236
G1 X123.633 Y127.793 E2.99721
G1 X123.889 Y127.645 E3.01206
G1 X124.169 Y127.551 E3.02692
G1 X124.403 Y127.522 E3.03876
G1 X124.604 Y127.254 F7800.000
G1 E1.03876 F2400.00000
G92 E0
G1 X77.330 Y128.909 F7800.000
G1 E2.00000 F2400.00000
G1 F1800.000
G1 X77.312 Y129.273 E2.01832
G1 X77.222 Y129.627 E2.03663
G1 X77.064 Y129.956 E2.05495
G1 X76.843 Y130.247 E2.07326
G1 X76.570 Y130.488 E2.09158
G1 X76.254 Y130.671 E2.10989
G1 X75.908 Y130.787 E2.12821
G1 X75.546 Y130.832 E2.14653
G1 X75.182 Y130.805 E2.16483
G1 X74.832 Y130.707 E2.18305
G1 X74.506 Y130.540 E2.20146
G1 X74.220 Y130.312 E2.21979
G1 X73.986 Y130.032 E2.23810
G1 X73.815 Y129.718 E2.25607
G1 X73.723 Y129.445 E2.27051
G1 X73.670 Y129.091 E2.28847
G1 X73.688 Y128.727 E2.30679
G1 X73.778 Y128.373 E2.32510
G1 X73.936 Y128.044 E2.34342
G1 X74.157 Y127.753 E2.36173
G1 X74.430 Y127.512 E2.38005
G1 X74.746 Y127.329 E2.39836
G1 X75.092 Y127.213 E2.41668
G1 X75.454 Y127.168 E2.43500
G1 X75.818 Y127.195 E2.45331
G1 X76.170 Y127.294 E2.47163
G1 X76.494 Y127.460 E2.48994
G1 X76.780 Y127.688 E2.50826
G1 X77.014 Y127.968 E2.52657
G1 X77.185 Y128.282 E2.54454
G1 X77.277 Y128.555 E2.55898
G1 X77.321 Y128.849 E2.57393
G1 X76.984 Y128.926 F7800.000
G1 F1800.000
G1 X76.969 Y129.221 E2.58878
G1 X76.896 Y129.508 E2.60363
G1 X76.768 Y129.775 E2.61849
G1 X76.589 Y130.011 E2.63334
G1 X76.367 Y130.207 E2.64819
G1 X76.111 Y130.355 E2.66304
G1 X75.831 Y130.449 E2.67789
G1 X75.537 Y130.486 E2.69274
G1 X75.242 Y130.464 E2.70759
G1 X74.959 Y130.384 E2.72235
G1 X74.694 Y130.248 E2.73729
G1 X74.462 Y130.064 E2.75215
G1 X74.272 Y129.837 E2.76700
G1 X74.132 Y129.580 E2.78172
G1 X74.059 Y129.364 E2.79313
G1 X74.016 Y129.074 E2.80785
G1 X74.031 Y128.779 E2.82270
G1 X74.104 Y128.492 E2.83755
G1 X74.232 Y128.225 E2.85240
G1 X74.411 Y127.989 E2.86726
G1 X74.633 Y127.793 E2.88211
G1 X74.889 Y127.645 E2.89696
G1 X75.169 Y127.551 E2.91181
G1 X75.463 Y127.514 E2.92666
G1 X75.758 Y127.536 E2.94151
G1 X76.043 Y127.617 E2.95637
G1 X76.306 Y127.752 E2.97122
G1 X76.538 Y127.936 E2.98607
G1 X76.728 Y128.163 E3.00092
G1 X76.868 Y128.420 E3.01564
G1 X76.941 Y128.636 E3.02705
G1 X76.975 Y128.867 E3.03876
G1 X77.247 Y129.063 F7800.000
G1 E1.03876 F2400.00000
G92 E0
G1 X63.159 Y131.417 F7800.000
G1 E2.00000 F2400.00000
G1 F1800.000
G1 X62.934 Y131.139 E2.01797
G1 X62.830 Y130.919 E2.03019
G1 X62.769 Y130.676 E2.04276
G1 X62.755 Y130.477 E2.05275
G1 X62.755 Y69.530 E5.11146
G1 X62.782 Y69.257 E5.12518
G1 X62.852 Y69.025 E5.13740
G1 X62.970 Y68.804 E5.14996
G1 X63.155 Y68.588 E5.16422
G1 X63.361 Y68.434 E5.17713
G1 X63.581 Y68.330 E5.18935
G1 X63.824 Y68.269 E5.20191
G1 X64.023 Y68.255 E5.21190
G1 X135.976 Y68.255 E8.82295
G1 X136.242 Y68.281 E8.83637
G1 X136.475 Y68.352 E8.84860
G1 X136.690 Y68.467 E8.86082
G1 X136.879 Y68.622 E8.87305
G1 X137.033 Y68.810 E8.88527
G1 X137.148 Y69.025 E8.89749
G1 X137.218 Y69.257 E8.90971
G1 X137.245 Y69.530 E8.92343
G1 X137.245 Y130.470 E11.98180
G1 X137.218 Y130.743 E11.99552
G1 X137.146 Y130.982 E12.00808
G1 X137.007 Y131.230 E12.02234
G1 X136.834 Y131.421 E12.03525
G1 X136.639 Y131.566 E12.04747
G1 X136.419 Y131.670 E12.05969
G1 X136.176 Y131.731 E12.07226
G1 X135.977 Y131.745 E12.08225
G1 X64.030 Y131.745 E15.69300
G1 X63.757 Y131.718 E15.70672
G1 X63.525 Y131.648 E15.71894
G1 X63.304 Y131.530 E15.73151
G1 X63.207 Y131.454 E15.73768
G1 X62.916 Y131.661 F7800.000
G1 F1800.000
G1 X62.826 Y131.571 E15.74405
G1 X62.637 Y131.317 E15.75995
G1 X62.504 Y131.035 E15.77558
G1 X62.428 Y130.731 E15.79134
G1 X62.410 Y130.490 E15.80346
G1 X62.410 Y69.513 E18.86365
G1 X62.442 Y69.190 E18.87993
G1 X62.532 Y68.892 E18.89556
G1 X62.680 Y68.615 E18.91132
G1 X62.929 Y68.326 E18.93046
G1 X63.183 Y68.137 E18.94635
G1 X63.465 Y68.004 E18.96199
G1 X63.769 Y67.928 E18.97775
G1 X64.010 Y67.910 E18.98986
G1 X135.993 Y67.910 E22.60240
G1 X136.310 Y67.942 E22.61837
G1 X136.608 Y68.032 E22.63401
G1 X136.883 Y68.179 E22.64964
G1 X137.124 Y68.376 E22.66527
G1 X137.321 Y68.617 E22.68090
G1 X137.468 Y68.892 E22.69654
G1 X137.558 Y69.190 E22.71217
G1 X137.590 Y69.513 E22.72844
G1 X137.590 Y130.487 E25.78851
G1 X137.558 Y130.810 E25.80478
G1 X137.467 Y131.111 E25.82054
G1 X137.280 Y131.443 E25.83968
G1 X137.067 Y131.677 E25.85558
G1 X136.817 Y131.863 E25.87121
G1 X136.535 Y131.996 E25.88684
G1 X136.231 Y132.072 E25.90260
G1 X135.990 Y132.090 E25.91472
G1 X64.013 Y132.090 E29.52696
G1 X63.690 Y132.058 E29.54323
G1 X63.392 Y131.968 E29.55886
G1 X63.115 Y131.820 E29.57463
G1 X62.961 Y131.700 E29.58441
G1 X62.940 Y131.536 F7800.000
G1 X64.239 Y131.642
G1 F1800.000
G1 X63.014 Y130.416 E29.67152
G1 X63.014 Y129.928 E29.69607
G1 X64.572 Y131.486 E29.80686
G1 X65.061 Y131.486 E29.83141
G1 X63.014 Y129.439 E29.97691
G1 X63.014 Y128.951 E30.00146
G1 X65.549 Y131.486 E30.18168
G1 X66.038 Y131.486 E30.20622
G1 X63.014 Y128.462 E30.42115
G1 X63.014 Y127.974 E30.44570
G1 X66.526 Y131.486 E30.69534
G1 X67.015 Y131.486 E30.71989
G1 X63.014 Y127.485 E31.00425
G1 X63.014 Y126.997 E31.02879
G1 X67.503 Y131.486 E31.34786
G1 X67.991 Y131.486 E31.37241
G1 X63.014 Y126.509 E31.72619
G1 X63.014 Y126.020 E31.75074
G1 X68.480 Y131.486 E32.13923
G1 X68.968 Y131.486 E32.16378
G1 X63.014 Y125.532 E32.58699
G1 X63.014 Y125.043 E32.61153
G1 X69.457 Y131.486 E33.06945
G1 X69.945 Y131.486 E33.09400
G1 X63.014 Y124.555 E33.58664
G1 X63.014 Y124.067 E33.61118
G1 X70.433 Y131.486 E34.13853
G1 X70.922 Y131.486 E34.16307
G1 X63.014 Y123.578 E34.72514
G1 X63.014 Y123.090 E34.74968
G1 X71.410 Y131.486 E35.34645
G1 X71.899 Y131.486 E35.37100
G1 X63.014 Y122.601 E36.00249
G1 X63.014 Y122.113 E36.02703
G1 X72.387 Y131.486 E36.69323
G1 X72.876 Y131.486 E36.71778
G1 X63.014 Y121.624 E37.41869
G1 X63.014 Y121.136 E37.44324
G1 X73.364 Y131.486 E38.17886
G1 X73.852 Y131.486 E38.20341
G1 X63.014 Y120.648 E38.97374
G1 X63.014 Y120.159 E38.99829
G1 X74.496 Y131.642 E39.81437
G1 E37.81437 F2400.00000
G92 E0
G1 X85.730 Y131.642 F7800.000
G1 E2.00000 F2400.00000
G1 F1800.000
G1 X63.014 Y108.925 E3.61448
G1 X63.014 Y109.414 E3.63902
G1 X85.086 Y131.486 E5.20776
G1 X84.598 Y131.486 E5.23231
G1 X63.014 Y109.902 E6.76633
G1 X63.014 Y110.391 E6.79087
G1 X84.109 Y131.486 E8.29018
G1 X83.621 Y131.486 E8.31473
G1 X63.014 Y110.879 E9.77933
G1 X63.014 Y111.368 E9.80387
G1 X83.132 Y131.486 E11.23376
G1 X82.644 Y131.486 E11.25830
G1 X63.014 Y111.856 E12.65347
G1 X63.014 Y112.344 E12.67802
G1 X82.156 Y131.486 E14.03848
G1 X81.667 Y131.486 E14.06302
G1 X63.014 Y112.833 E15.38877
G1 X63.014 Y113.321 E15.41331
G1 X81.179 Y131.486 E16.70434
G1 X80.690 Y131.486 E16.72889
G1 X77.444 Y128.241 E16.95958
G1 X77.529 Y128.494 E16.97300
G1 X77.586 Y128.871 E16.99217
G1 X80.202 Y131.486 E17.17807
G1 X79.713 Y131.486 E17.20261
G1 X77.563 Y129.336 E17.35544
G1 X77.462 Y129.724 E17.37558
G1 X79.225 Y131.486 E17.50084
G1 X78.737 Y131.486 E17.52539
G1 X77.304 Y130.054 E17.62723
G1 X77.099 Y130.337 E17.64481
G1 X78.248 Y131.486 E17.72648
G1 X77.760 Y131.486 E17.75102
G1 X76.855 Y130.582 E17.81534
G1 X76.722 Y130.699 E17.82427
G1 X76.571 Y130.786 E17.83301
G1 X77.271 Y131.486 E17.88279
G1 X76.783 Y131.486 E17.90734
G1 X76.243 Y130.947 E17.94569
G1 X75.966 Y131.040 E17.96041
G1 X75.861 Y131.053 E17.96569
G1 X76.295 Y131.486 E17.99648
G1 X75.806 Y131.486 E18.02103
G1 X75.400 Y131.081 E18.04987
